docs/.gitbook/assets/icon-app-window-grid-3x3-16@dark.svg

<svg width="32" height="32" viewBox="0 0 16 16" fill="none" xmlns="http://www.w3.org/2000/svg">
<rect x="0" y="0" width="16" height="16" fill="#181c1f"/>
<path fill-rule="evenodd" clip-rule="evenodd" d="M3.75 1C2.23122 1 1 2.23122 1 3.75V12.25C1 13.7688 2.23122 15 3.75 15H12.25C13.7688 15 15 13.7688 15 12.25V3.75C15 2.23122 13.7688 1 12.25 1H3.75ZM2.5 3.75C2.5 3.05964 3.05964 2.5 3.75 2.5H12.25C12.9404 2.5 13.5 3.05964 13.5 3.75V12.25C13.5 12.9404 12.9404 13.5 12.25 13.5H3.75C3.05964 13.5 2.5 12.9404 2.5 12.25V3.75ZM4.5 4C4.22386 4 4 4.22386 4 4.5V5.5C4 5.77614 4.22386 6 4.5 6H5.5C5.77614 6 6 5.77614 6 5.5V4.5C6 4.22386 5.77614 4 5.5 4H4.5ZM4.5 7C4.22386 7 4 7.22386 4 7.5V8.5C4 8.77614 4.22386 9 4.5 9H5.5C5.77614 9 6 8.77614 6 8.5V7.5C6 7.22386 5.77614 7 5.5 7H4.5ZM4.5 10C4.22386 10 4 10.2239 4 10.5V11.5C4 11.7761 4.22386 12 4.5 12H5.5C5.77614 12 6 11.7761 6 11.5V10.5C6 10.2239 5.77614 10 5.5 10H4.5ZM7.5 4C7.22386 4 7 4.22386 7 4.5V5.5C7 5.77614 7.22386 6 7.5 6H8.5C8.77614 6 9 5.77614 9 5.5V4.5C9 4.22386 8.77614 4 8.5 4H7.5ZM7.5 7C7.22386 7 7 7.22386 7 7.5V8.5C7 8.77614 7.22386 9 7.5 9H8.5C8.77614 9 9 8.77614 9 8.5V7.5C9 7.22386 8.77614 7 8.5 7H7.5ZM7.5 10C7.22386 10 7 10.2239 7 10.5V11.5C7 11.7761 7.22386 12 7.5 12H8.5C8.77614 12 9 11.7761 9 11.5V10.5C9 10.2239 8.77614 10 8.5 10H7.5ZM10.5 4C10.2239 4 10 4.22386 10 4.5V5.5C10 5.77614 10.2239 6 10.5 6H11.5C11.7761 6 12 5.77614 12 5.5V4.5C12 4.22386 11.7761 4 11.5 4H10.5ZM10.5 7C10.2239 7 10 7.22386 10 7.5V8.5C10 8.77614 10.2239 9 10.5 9H11.5C11.7761 9 12 8.77614 12 8.5V7.5C12 7.22386 11.7761 7 11.5 7H10.5ZM10.5 10C10.2239 10 10 10.2239 10 10.5V11.5C10 11.7761 10.2239 12 10.5 12H11.5C11.7761 12 12 11.7761 12 11.5V10.5C12 10.2239 11.7761 10 11.5 10H10.5Z" fill="#fff"/>
</svg>

<svg xmlns="http://www.w3.org/2000/svg" width="32" height="32" fill="none" viewBox="0 0 16 16"><path fill="#181c1f" d="M0 0h16v16H0z"/><path fill="#fff" fill-rule="evenodd" d="M3.75 1A2.75 2.75 0 0 0 1 3.75v8.5A2.75 2.75 0 0 0 3.75 15h8.5A2.75 2.75 0 0 0 15 12.25v-8.5A2.75 2.75 0 0 0 12.25 1zM2.5 3.75c0-.69.56-1.25 1.25-1.25h8.5c.69 0 1.25.56 1.25 1.25v8.5c0 .69-.56 1.25-1.25 1.25h-8.5c-.69 0-1.25-.56-1.25-1.25zm2 .25a.5.5 0 0 0-.5.5v1a.5.5 0 0 0 .5.5h1a.5.5 0 0 0 .5-.5v-1a.5.5 0 0 0-.5-.5zm0 3a.5.5 0 0 0-.5.5v1a.5.5 0 0 0 .5.5h1a.5.5 0 0 0 .5-.5v-1a.5.5 0 0 0-.5-.5zm0 3a.5.5 0 0 0-.5.5v1a.5.5 0 0 0 .5.5h1a.5.5 0 0 0 .5-.5v-1a.5.5 0 0 0-.5-.5zm3-6a.5.5 0 0 0-.5.5v1a.5.5 0 0 0 .5.5h1a.5.5 0 0 0 .5-.5v-1a.5.5 0 0 0-.5-.5zm0 3a.5.5 0 0 0-.5.5v1a.5.5 0 0 0 .5.5h1a.5.5 0 0 0 .5-.5v-1a.5.5 0 0 0-.5-.5zm0 3a.5.5 0 0 0-.5.5v1a.5.5 0 0 0 .5.5h1a.5.5 0 0 0 .5-.5v-1a.5.5 0 0 0-.5-.5zm3-6a.5.5 0 0 0-.5.5v1a.5.5 0 0 0 .5.5h1a.5.5 0 0 0 .5-.5v-1a.5.5 0 0 0-.5-.5zm0 3a.5.5 0 0 0-.5.5v1a.5.5 0 0 0 .5.5h1a.5.5 0 0 0 .5-.5v-1a.5.5 0 0 0-.5-.5zm0 3a.5.5 0 0 0-.5.5v1a.5.5 0 0 0 .5.5h1a.5.5 0 0 0 .5-.5v-1a.5.5 0 0 0-.5-.5z" clip-rule="evenodd"/></svg>
